!!!COM: Fanny (Mendelssohn) Hensel
!!!CNT: Deutsch
!!!TXO: Deutsch
!!!OTL: "Na2he des Geliebten"
!!!LYR: von Goethe, J. W.
!!!OPR: 
!!!OPS: Op. 
!!!ONM: No. 
!!!ENC: Emily Thomas
!!!YOR: Hensel: 16 Songs Fanny Mendelssohn Hensel
!!!YOR: Alfred, 1995
!!!ODT: 1826/
!!NB: Vocal melody and text encoded.
**kern	**silbe
=0	=0
*clefG2	*
*k[f#c#]	*
*M3/4	*
*MM[Adagio]	*
2r	.
{4a	{Ich
=1	=1
2ff#	den-
8dd	-ke
8b	|
=2	=2
4a	dein,}
8r	.
{8a	{wenn
8g#	mir
8a	der
=3	=3
[4dd	Son-
8dd]	|
16ff	|
16ee	|
8dd	|
8cc#	-ne
=4	=4
16ee	Schim-
16dd	|
16cc#	-mer
16b	vom
[4a	Mee-
8a]	|
16cc#	-re
16b	|
=5	=5
4a}	strahlt;}
4r	.
8r	.
{8a	{ich
=6	=6
8.ff#	den-
16dd	-ke
8a}	dein,}
{8dd	{wenn
8dd	sich
8ee	des
=7	=7
4ffn	Mon-
8ee	|
8cc#	|
8dd	|
8b-	-des
=8	=8
8a	Flim-
8g#	|
8a	|
8f#	|
8gn}	mer}
{8g#	{in
=9	=9
[2a	Quel-
8a]	|
16ff#	-len
16ee	|
=10	=10
4dd}	malt.}
4r	.
8r	.
{8a	{ich
=11	=11
2ff#	ho2-
8dd	-re
8b	|
=12	=12
4a}	dich,}
8r	.
{8a	{wenn
8g#	dort
8a	mit
=13	=13
[4dd	dum-
8dd]	|
16ff#	|
16ee	|
8dd	|
8cc#	-pfem
=14	=14
16ee	Rau-
16dd	|
16cc#	-schen
16b	die
[4a	Wel-
8a]	|
16cc#	-le
16b	|
=15	=15
4a}	steigt;}
4r	.
8r	.
{8a	{im
=16	=16
8.ff#	stil-
16dd	-len
8a	Hai-
8dd	-ne
8dd	geh
8ee	ich
=17	=17
4ffn	oft
8ee	|
8cc#	|
8dd	|
8b-	zu
=18	=18
8a	lau-
8g#	|
8a	|
8f#	|
8gn}	-schen,}
{8g#	{wenn
=19	=19
[2a	al-
8a]	|
16ff#	les
16ee	|
=20	=20
4dd}	schweigt.}
4r	.
4r	.
==	==
*-	*-
